youtube.svg

<svg height="13.33" viewBox="0 0 20 13.33" width="20" xmlns="http://www.w3.org/2000/svg"><path d="m16.74 0h-13.47a3.21 3.21 0 0 0 -3.27 3.1v7.13a3.2 3.2 0 0 0 3.27 3.1h13.47a3.18 3.18 0 0 0 3.26-3.1v-7.13a3.2 3.2 0 0 0 -3.26-3.1zm-2.74 7.17-6.64 3.66a1.09 1.09 0 0 1 -.47.12.92.92 0 0 1 -.36-.07.63.63 0 0 1 -.44-.54v-7.34a.62.62 0 0 1 .44-.54 1 1 0 0 1 .83 0l6.64 3.74a.57.57 0 0 1 .33.48.54.54 0 0 1 -.33.49z"/></svg>

<svg xmlns="http://www.w3.org/2000/svg" width="20" height="13.33" viewBox="0 0 20 13.33"><title>youtube</title><path d="M16.74,0H3.27A3.21,3.21,0,0,0,0,3.1v7.13a3.2,3.2,0,0,0,3.27,3.1H16.74A3.18,3.18,0,0,0,20,10.23V3.1A3.2,3.2,0,0,0,16.74,0ZM14,7.17,7.36,10.83a1.09,1.09,0,0,1-.47.12.92.92,0,0,1-.36-.07.63.63,0,0,1-.44-.54V3a.62.62,0,0,1,.44-.54,1,1,0,0,1,.83,0L14,6.2a.57.57,0,0,1,.33.48A.54.54,0,0,1,14,7.17Z"/></svg>
